# bach prelude
use_bpm 128 #snelheid van het stuk

2.times do #maat 1
  play :G4
  sleep 0.5
  play :D5
  sleep 0.5
  play :B5
  sleep 0.5
  play :A5
  sleep 0.5
  play :B5
  sleep 0.5
  play :D5
  sleep 0.5
  play :B5
  sleep 0.5
  play :D5
  sleep 0.5
end

2.times do #maat 2
  play :G4
  sleep 0.5
  play :E5
  sleep 0.5
  play :C6
  sleep 0.5
  play :B5
  sleep 0.5
  play :C6
  sleep 0.5
  play :E5
  sleep 0.5
  play :C6
  sleep 0.5
  play :E5
  sleep 0.5
end

2.times do #maat 3
  play :G4
  sleep 0.5
  play :Fs5
  sleep 0.5
  play :C6
  sleep 0.5
  play :B5
  sleep 0.5
  play :C6
  sleep 0.5
  play :Fs5
  sleep 0.5
  play :C6
  sleep 0.5
  play :Fs5
  sleep 0.5
end

play :G4 #maat 4a (a = eerste deel van de maat)
sleep 0.5
play :G5
sleep 0.5
play :B5
sleep 0.5
play :A5
sleep 0.5
play :B5
sleep 0.5
play :G5
sleep 0.5
play :B5
sleep 0.5
play :G5
sleep 0.5

play :G4 #maat 4b (b = tweede deel van de maat)
sleep 0.5
play :G5
sleep 0.5
play :B5
sleep 0.5
play :A5
sleep 0.5
play :B5
sleep 0.5
play :G5
sleep 0.5
play :B5
sleep 0.5
play :Fs5
sleep 0.5

play :G4 #maat 5a
sleep 0.5
play :E5
sleep 0.5
play :B5
sleep 0.5
play :A5
sleep 0.5
play :B5
sleep 0.5
play :G5
sleep 0.5
play :Fs5
sleep 0.5
play :G5
sleep 0.5

play :E5 #maat 5b
sleep 0.5
play :G5
sleep 0.5
play :Fs5
sleep 0.5
play :G5
sleep 0.5
play :B4
sleep 0.5
play :D5
sleep 0.5
play :Cs5
sleep 0.5
play :B4
sleep 0.5

2.times do #maat 6
  play :Cs5
  sleep 0.5
  play :G5
  sleep 0.5
  play :A5
  sleep 0.5
  play :G5
  sleep 0.5
  play :A5
  sleep 0.5
  play :G5
  sleep 0.5
  play :A5
  sleep 0.5
  play :G5
  sleep 0.5
end

play :Fs5 #maat 7a
sleep 0.5
play :A5
sleep 0.5
play :D6
sleep 0.5
play :Cs6
sleep 0.5
play :D6
sleep 0.5
play :A5
sleep 0.5
play :G5
sleep 0.5
play :A5
sleep 0.5

play :Fs5 #maat 7b
sleep 0.5
play :A5
sleep 0.5
play :G5
sleep 0.5
play :A5
sleep 0.5
play :D5
sleep 0.5
play :Fs5
sleep 0.5
play :E5
sleep 0.5
play :D5
sleep 0.5

2.times do #maat 8
  play :E4
  sleep 0.5
  play :B4
  sleep 0.5
  play :G5
  sleep 0.5
  play :Fs5
  sleep 0.5
  play :G5
  sleep 0.5
  play :B4
  sleep 0.5
  play :G5
  sleep 0.5
  play :B4
  sleep 0.5
end

play :E4 #maat 9a
sleep 0.5
play :Cs5
sleep 0.5
play :D5
sleep 0.5
play :E5
sleep 0.5
play :D5
sleep 0.5
play :Cs5
sleep 0.5
play :B4
sleep 0.5
play :A4
sleep 0.5

play :G5 #maat 9b
sleep 0.5
play :Fs5
sleep 0.5
play :E5
sleep 0.5
play :D6
sleep 0.5
play :Cs6
sleep 0.5
play :B5
sleep 0.5
play :A5
sleep 0.5
play :G5
sleep 0.5

play :Fs5 #maat 10a
sleep 0.5
play :E5
sleep 0.5
play :D5
sleep 0.5
play :D6
sleep 0.5
play :A5
sleep 0.5
play :D6
sleep 0.5
play :Fs5
sleep 0.5
play :A5
sleep 0.5

play :D5 #maat 10b
sleep 0.5
play :E5
sleep 0.5
play :Fs5
sleep 0.5
play :A5
sleep 0.5
play :G5
sleep 0.5
play :Fs5
sleep 0.5
play :E5
sleep 0.5
play :D5
sleep 0.5

play :Gs5 #maat 11a
sleep 0.5
play :D5
sleep 0.5
play :F5
sleep 0.5
play :E5
sleep 0.5
play :F5
sleep 0.5
play :D5
sleep 0.5
play :Gs5
sleep 0.5
play :D5
sleep 0.5

play :B5 #maat 11b
sleep 0.5
play :D5
sleep 0.5
play :F5
sleep 0.5
play :E5
sleep 0.5
play :F5
sleep 0.5
play :D5
sleep 0.5
play :Gs5
sleep 0.5
play :D5
sleep 0.5

2.times do #maat 12
  play :C5
  sleep 0.5
  play :E5
  sleep 0.5
  play :A5
  sleep 0.5
  play :B5
  sleep 0.5
  play :C6
  sleep 0.5
  play :A5
  sleep 0.5
  play :E5
  sleep 0.5
  play :D5
  sleep 0.5
end

2.times do #maat 13
  play :Ds5
  sleep 0.5
  play :Fs5
  sleep 0.5
  play :Ds5
  sleep 0.5
  play :Fs5
  sleep 0.5
  play :A5
  sleep 0.5
  play :Fs5
  sleep 0.5
  play :A5
  sleep 0.5
  play :Fs5
  sleep 0.5
end

play :G5 #maat 14a
sleep 0.5
play :Fs5
sleep 0.5
play :E5
sleep 0.5
play :G5
sleep 0.5
play :Fs5
sleep 0.5
play :G5
sleep 0.5
play :A5
sleep 0.5
play :Fs5
sleep 0.5

play :G5 #maat 14b
sleep 0.5
play :Fs5
sleep 0.5
play :E5
sleep 0.5
play :D5
sleep 0.5
play :Cs5
sleep 0.5
play :B4
sleep 0.5
play :A4
sleep 0.5
play :G4
sleep 0.5


2.times do #maat 15
  play :Fs4
  sleep 0.5
  play :C5
  sleep 0.5
  play :D5
  sleep 0.5
  play :C5
  sleep 0.5
  play :D5
  sleep 0.5
  play :C5
  sleep 0.5
  play :D5
  sleep 0.5
  play :C5
  sleep 0.5
end

2.times do #maat 16
  play :G4
  sleep 0.5
  play :B4
  sleep 0.5
  play :F5
  sleep 0.5
  play :E5
  sleep 0.5
  play :F5
  sleep 0.5
  play :B4
  sleep 0.5
  play :F5
  sleep 0.5
  play :B4
  sleep 0.5
end

2.times do #maat 17
  play :G4
  sleep 0.5
  play :C5
  sleep 0.5
  play :E5
  sleep 0.5
  play :D5
  sleep 0.5
  play :E5
  sleep 0.5
  play :C5
  sleep 0.5
  play :E5
  sleep 0.5
  play :C5
  sleep 0.5
end

2.times do #maat 18
  play :G4
  sleep 0.5
  play :Fs5
  sleep 0.5
  play :C6
  sleep 0.5
  play :B5
  sleep 0.5
  play :C6
  sleep 0.5
  play :Fs5
  sleep 0.5
  play :C6
  sleep 0.5
  play :Fs5
  sleep 0.5
end

play :G4 #maat 19a
sleep 0.5
play :D5
sleep 0.5
play :B5
sleep 0.5
play :A5
sleep 0.5
play :B5
sleep 0.5
play :G5
sleep 0.5
play :Fs5
sleep 0.5
play :E5
sleep 0.5

play :D5 #maat 19b
sleep 0.5
play :C5
sleep 0.5
play :B4
sleep 0.5
play :A4
sleep 0.5
play :G4
sleep 0.5
play :Fs4
sleep 0.5
play :E4
sleep 0.5
play :D4
sleep 0.5

2.times do #maat 20
  play :Cs4
  sleep 0.5
  play :A4
  sleep 0.5
  play :E5
  sleep 0.5
  play :Fs5
  sleep 0.5
  play :G5
  sleep 0.5
  play :E5
  sleep 0.5
  play :Fs5
  sleep 0.5
  play :G5
  sleep 0.5
end

2.times do #maat 21
  play :C4
  sleep 0.5
  play :A4
  sleep 0.5
  play :D5
  sleep 0.5
  play :E5
  sleep 0.5
  play :Fs5
  sleep 0.5
  play :D5
  sleep 0.5
  play :E5
  sleep 0.5
  play :Fs5
  sleep 0.5
end

play :C4 #maat 22a
sleep 0.5
play :A4
sleep 0.5
play :D5
sleep 0.5
play :Fs5
sleep 0.5

play :A5
sleep 0.5
play :Cs6
sleep 0.5
play :D6 #orgelpunt (https://nl.wikipedia.org/wiki/Orgelpunt)
sleep 3.5

play :A4 #maat 22b
sleep 0.5
play :B4
sleep 0.5
play :Cs5
sleep 0.5
play :D5
sleep 0.5
play :E5
sleep 0.5
play :Fs5
sleep 0.5
play :G5
sleep 0.5

play :A5 #maat 23a
sleep 0.5
play :Fs5
sleep 0.5
play :D5
sleep 0.5
play :E5
sleep 0.5
play :Fs5
sleep 0.5
play :G5
sleep 0.5
play :A5
sleep 0.5
play :B5
sleep 0.5

play :C6 #maat 23b
sleep 0.5
play :A5
sleep 0.5
play :Fs5
sleep 0.5
play :G5
sleep 0.5
play :A5
sleep 0.5
play :B5
sleep 0.5
play :C6
sleep 0.5
play :D6
sleep 0.5

play :Eb6 #maat 24a
sleep 0.5
play :D6
sleep 0.5
play :Cs6
sleep 0.5
play :D6
sleep 0.5
play :D6
sleep 0.5
play :C6
sleep 0.5
play :B5
sleep 0.5
play :C6
sleep 0.5

play :C6 #maat 24b
sleep 0.5
play :A5
sleep 0.5
play :Fs5
sleep 0.5
play :E5
sleep 0.5
play :D5
sleep 0.5
play :A4
sleep 0.5
play :B4
sleep 0.5
play :C5
sleep 0.5

play :D4 #maat 25a
sleep 0.5
play :A4
sleep 0.5
play :D5
sleep 0.5
play :Fs5
sleep 0.5
play :A5
sleep 0.5
play :B5
sleep 0.5
play :C6
sleep 0.5
play :A5
sleep 0.5

play :B5 #maat 25b
sleep 0.5
play :G5
sleep 0.5
play :D5
sleep 0.5
play :C5
sleep 0.5
play :B4
sleep 0.5
play :G4
sleep 0.5
play :A4
sleep 0.5
play :B4
sleep 0.5

play :D4 #maat 26a
sleep 0.5
play :G4
sleep 0.5
play :B4
sleep 0.5
play :D5
sleep 0.5
play :G5
sleep 0.5
play :A5
sleep 0.5
play :B5
sleep 0.5
play :G5
sleep 0.5

play :Cs6 #maat 26b
sleep 0.5
play :Bb5
sleep 0.5
play :A5
sleep 0.5
play :Bb5
sleep 0.5
play :Bb5
sleep 0.5
play :A5
sleep 0.5
play :Gs5
sleep 0.5
play :A5
sleep 0.5

play :A5 #maat 27a
sleep 0.5
play :G5
sleep 0.5
play :Fs5
sleep 0.5
play :G5
sleep 0.5
play :E5
sleep 0.5
play :D5
sleep 0.5
play :Cs5
sleep 0.5
play :B4
sleep 0.5

play :A4 #maat 27b
sleep 0.5
play :Cs5
sleep 0.5
play :E5
sleep 0.5
play :G5
sleep 0.5
play :A5
sleep 0.5
play :Cs6
sleep 0.5
play :D6
sleep 0.5
play :Cs6
sleep 0.5

play :D6 #maat 28a
sleep 0.5
play :A5
sleep 0.5
play :Fs5
sleep 0.5
play :E5
sleep 0.5
play :Fs5
sleep 0.5
play :A5
sleep 0.5
play :D5
sleep 0.5
play :Fs5
sleep 0.5

play :A4 #maat 28b
sleep 0.5
play :D5
sleep 0.5
play :Cs5
sleep 0.5
play :B4
sleep 0.5
play :A4
sleep 0.5
play :G4
sleep 0.5
play :Fs4
sleep 0.5
play :E4
sleep 0.5

play :D4 #maat 29a
sleep 1
play :C6
sleep 0.5
play :B5
sleep 0.5
play :A5
sleep 0.5
play :G5
sleep 0.5
play :Fs5
sleep 0.5
play :E5
sleep 0.5

play :D5 #maat 29b
sleep 0.5
play :C5
sleep 0.5
play :B5
sleep 0.5
play :A5
sleep 0.5
play :G5
sleep 0.5
play :Fs5
sleep 0.5
play :E5
sleep 0.5
play :D5
sleep 0.5

play :C5 #maat 30a
sleep 0.5
play :B4
sleep 0.5
play :A5
sleep 0.5
play :G5
sleep 0.5
play :Fs5
sleep 0.5
play :E5
sleep 0.5
play :D5
sleep 0.5
play :C5
sleep 0.5

play :B4 #maat 30b
sleep 0.5
play :A5
sleep 0.5
play :G5
sleep 0.5
play :Fs5
sleep 0.5
play :E5
sleep 0.5
play :D5
sleep 0.5
play :C5
sleep 0.5
play :B4
sleep 0.5

play :A4 #maat 31a
sleep 0.5
play :G5
sleep 0.5
play :Fs5
sleep 0.5
play :E5
sleep 0.5
play :Fs5
sleep 0.5
play :A5
sleep 0.5
play :D5
sleep 0.5
play :A5
sleep 0.5

play :E5 #maat 31b
sleep 0.5
play :A5
sleep 0.5
play :Fs5
sleep 0.5
play :A5
sleep 0.5
play :G5
sleep 0.5
play :A5
sleep 0.5
play :E5
sleep 0.5
play :A5
sleep 0.5

2.times do #maat 32
  play :Fs5
  sleep 0.5
  play :A5
  sleep 0.5
  play :D5
  sleep 0.5
  play :A5
  sleep 0.5
  play :G5
  sleep 0.5
  play :A5
  sleep 0.5
  play :E5
  sleep 0.5
  play :A5
  sleep 0.5
end

play :Fs5 #maat 33a
sleep 0.5
play :A5
sleep 0.5
play :D5
sleep 0.5
play :A5
sleep 0.5
play :E5
sleep 0.5
play :A5
sleep 0.5
play :Fs5
sleep 0.5
play :A5
sleep 0.5

play :G5 #maat 33b
sleep 0.5
play :A5
sleep 0.5
play :A5
sleep 0.5
play :A5
sleep 0.5
play :B5
sleep 0.5
play :A5
sleep 0.5
play :D5
sleep 0.5
play :A5
sleep 0.5

play :A5 #maat 34a
sleep 0.5
play :A5
sleep 0.5
play :B5
sleep 0.5
play :A5
sleep 0.5
play :C6
sleep 0.5
play :A5
sleep 0.5
play :D5
sleep 0.5
play :A5
sleep 0.5

play :B5 #maat 34b
sleep 0.5
play :A5
sleep 0.5
play :C6
sleep 0.5
play :A5
sleep 0.5
play :D6
sleep 0.5
play :A5
sleep 0.5
play :B5
sleep 0.5
play :A5
sleep 0.5

play :C6 #maat 35a
sleep 0.5
play :A5
sleep 0.5
play :B5
sleep 0.5
play :A5
sleep 0.5
play :C6
sleep 0.5
play :A5
sleep 0.5
play :A5
sleep 0.5
play :A5
sleep 0.5

play :B5 #maat 35b
sleep 0.5
play :A5
sleep 0.5
play :A5
sleep 0.5
play :A5
sleep 0.5
play :B5
sleep 0.5
play :A5
sleep 0.5
play :G5
sleep 0.5
play :A5
sleep 0.5

play :A5 #maat 36a
sleep 0.5
play :A5
sleep 0.5
play :G5
sleep 0.5
play :A5
sleep 0.5
play :A5
sleep 0.5
play :A5
sleep 0.5
play :Fs5
sleep 0.5
play :A5
sleep 0.5

play :G5 #maat 36b
sleep 0.5
play :A5
sleep 0.5
play :Fs5
sleep 0.5
play :A5
sleep 0.5
play :G5
sleep 0.5
play :A5
sleep 0.5
play :E5
sleep 0.5
play :A5
sleep 0.5

play :Fs5 #maat 37a
sleep 0.5
play :A5
sleep 0.5
play :D5
sleep 0.5
play :E5
sleep 0.5
play :F5
sleep 0.5
play :D5
sleep 0.5
play :Fs5
sleep 0.5
play :D5
sleep 0.5

play :G5 #maat 37b
sleep 0.5
play :D5
sleep 0.5
play :Gs5
sleep 0.5
play :D5
sleep 0.5
play :A5
sleep 0.5
play :D5
sleep 0.5
play :Bb5
sleep 0.5
play :D5
sleep 0.5

play :B5 #maat 38a
sleep 0.5
play :D5
sleep 0.5
play :C6
sleep 0.5
play :D5
sleep 0.5
play :Cs6
sleep 0.5
play :D5
sleep 0.5
play :D6
sleep 0.5
play :D5
sleep 0.5

play :Eb6 #maat 38b
sleep 0.5
play :D5
sleep 0.5
play :E6
sleep 0.5
play :D5
sleep 0.5
play :F6
sleep 0.5
play :D5
sleep 0.5
play :Fs6
sleep 0.5
play :D5
sleep 0.5

2.times do #maat 39
  play :G6
  sleep 0.5
  play :B5
  sleep 0.5
  play :D5
  sleep 0.5
  play :B5
  sleep 0.5
  play :G6
  sleep 0.5
  play :B5
  sleep 0.5
  play :G6
  sleep 0.5
  play :B5
  sleep 0.5
end

2.times do #maat 40
  play :G6
  sleep 0.5
  play :A5
  sleep 0.5
  play :D5
  sleep 0.5
  play :A5
  sleep 0.5
  play :G6
  sleep 0.5
  play :A5
  sleep 0.5
  play :G6
  sleep 0.5
  play :A5
  sleep 0.5
end

2.times do #maat 41
  play :Fs6
  sleep 0.5
  play :C6
  sleep 0.5
  play :D5
  sleep 0.5
  play :C6
  sleep 0.5
  play :Fs6
  sleep 0.5
  play :C6
  sleep 0.5
  play :Fs6
  sleep 0.5
  play :C6
  sleep 0.5
end

#maat 42

play :G6, release: 4 #"release" zorgt ervoor dat de noot voor 4 seconden klinkt
play :B5, release: 4
play :G5, release: 4
sleep 4
